X:1
T:Regina Caeli
T:Regina Caeli
T:Giovanni Rovetta
T:Source : Motetti concertati---Venetia---A.Vincenti---1639. Editor : André Vierendeels (17/03/16).
T:Notes : Original clefs C1, F4, F4 Figures in BC are notated in original print Subtitle in original :  a 2, Canto Tenor & Basso
T:©
T:©
T:©
T:©
T:©
T:©
T:©
T:©
C:Giovanni Rovetta
Z:©
%%score [ 1 2 ] 3
L:1/8
Q:1/4=90
M:4/4
K:F
V:1 treble nm="Soprano" snm="S"
V:2 bass nm="Bass" snm="B"
V:3 bass nm="BC" snm="BC"
V:1
 z2 F2 A2 A2 | z c B>A d4 | c4 z c f/_e/d/c/ | d>c d/c/d/B/ cc z2 | z F c/B/A/G/ A>G A/G/A/F/ | %5
w: Re- gi- na,|Re- gi- na Cae-|li le- ta- * * *|* * * * * * * re,|le- ta- * * * * * * * * *|
 G>A B>c A>B c>d | BAAG G4 | F8 | z4 z c f/_e/d/c/ | d>c d/c/d/B/ cc z2 | z4 z G c/B/A/G/ | %11
w: * re, al- le- lu- ia, al- le-|lu- ia, al- le- lu-|ia,|le- ta- * * *|* * * * * * * re,|le- ta- * * *|
 A>G A/G/A/F/ B>A B/A/B/G/ | A2 A2 z4 | z4 z2 F2 | c2 c2 z c B>A | d6 ef | f2 z c AFBB | %17
w: |* re,|Re-|gi- na, Re- gi- na|Cae- * *|li, le- ta- re, al- le-|
 GG z c AA z d | BGcc AA z d/c/ | BB z c/B/ AA z B/A/ | GG z B B3 A | B8 | z8 | z8 | z2 c4 c2 | %25
w: lu- ia, le- ta- re, le-|ta- re, al- le- lu- ia, al- le-|lu- ia, al- le- lu- ia, al- le-|lu- ia, al- le lu-|ia,|||qui- a|
 z FFF E2 DC | F>G A>B G>A B>c | A2 A2 z ccc | A2 GF B>c d>e | c>d _e>f d2 d2 | z8 | z4 z2 DE | %32
w: quem me- ru- i- sti por-|ta- re, al- le- lu- ia, al- le-|lu- ia, quem me- ru-|i- sti por- ta- re, al- le-|lu- ia, al- le- lu- ia,||re- sur-|
 FGAB cBcA | B4 A4 | z4 z2 dB | cABG A2 G2 | z2 cA BGAF | G2 F2 z2 BG | AFGE FD_ec | dBcA BAAG | %40
w: re- xit, re- sur- re- xit sic- ut|di- xit,|al- le-|lu- ia, al- le- lu- ia,|al- le- lu- ia, al- le-|lu- ia, al- le-|lu- ia, al- le- lu- ia, al- le-|lu- ia, al- le- lu- ia, al- le-|
 G8 | A8 | z4 z2 F2- | F2 G>A B2 BA | ABcB A4 | G4 z4 | z2 G4 A>B | c2 c2 z2 B2 | A2 A2 z2 G2 | %49
w: lu-|ia,|o-|* ra pro no- bis, o-|ra pro no- bis De-|um,|o- ra pro|no- bis, pro|no- bis, pro|
 F3 E E4 | D2 D/E/F/G/ Ad c>B- | A2 F/G/A/B/ cf e>d- | c2 fe d4 | c8 | z8 | z8 | %56
w: no- bis De-|um, al _ _ _ _ le- lu- ia,|_ al _ _ _ _ le- lu- ia,|_ al- le- lu-|ia,|||
 z2 F/G/A/B/ c>_e d>c- | d4 z4 | z2 F/G/A/B/ c>f _e>d- | _e4 z4 | z8 | z2 G/F/E/D/ C>D E>F- | %62
w: al _ _ _ _ le- lu- ia,|_|al- * * * * le- lu- ia,|_||al _ _ _ _ le- lu- ia,|
 G2 d/c/B/A/ G>A B>c- | d2 c3 B G2 | A8 | z8 | z8 | z8 | z4 z2 AE | G2 FE E4 | D4 z4 | z4 z2 dA | %72
w: _ al _ _ _ _ le- lu- ia,|_ al- le- lu-|ia,||||o- *|* ra pro no-|bis,|o- *|
 c2 BA A4 | G4 z A d2 | c2 c4 c>d | B2 A2 G4 | A2 F/G/A/B/ cf e>d- | c2 fe d4 | c8 | %79
w: * ra pro no-|bis, pro no-|bis, o ra pro|no- bis De-|um, al _ _ _ _ le- lu- ia,|_ al- le- lu-|ia,|
 z2 G/F/E/D/ C>D E>F | G2 d/c/B/A/ G>A B>c- | d2 c3 B G2 | A4 z4 | z8 | z2 f2- f_e d>c | d6 cB | %86
w: al- * * * * le- lu- ia,|_ al- * * * * le- lu- ia,|_ al- le- lu-|ia,||al _ _ _ le-|lu- * *|
 c8 |] %87
w: ia.|
V:2
 z8 | z8 | z8 | z8 | z8 | z8 | z4 z2 C,2 | F,2 F,2 z E, D,>C, | G,4 F,4 | z4 z F, C/B,/A,/G,/ | %10
w: ||||||Re-|gi- na, Re- gi- na|Cae- li|le- ta- * * *|
 A,>G, A,/G,/A,/F,/ G,G, z2 | z C, F,/E,/D,/C,/ D,>C, D,/C,/D,/B,,/ | F,>G, A,>B, G,>A, B,>C | %13
w: * * * * * * * re,|le- ta- * * * * * * * * *|* re al- le- lu- ia, al- le-|
 F,E,E,D, D,4 | C,3 C, F,2 F,2 | z F, E,>D, G,4 | F,4 z F,D,B,, | _E,E,C,C, z F,D,D, | %18
w: lu- ia, al- le- lu-|ia, Re- gi- na,|Re- gi- na Cae-|li, le- ta- re,|al- le lu- ia, le- ta- re,|
 z G,E,C, F,F,D,D, | z G,/F,/ _E,E, z F,/E,/ D,D, | _E,/F,/G,/A,/ B,D, F,4 | B,,2 B,4 B,2 | %22
w: le- ta- re, al- le- lu- ia,|al- le lu- ia, al- le- lu- ia,|al- * * * * le- lu-|ia, Qui- a|
 z B,,B,,B,, A,,2 G,,>F,, | C,>D, E,>F, D,>E, F,>G, | E,F,/G,/ F,4 E,2 | F,4 z4 | z8 | %27
w: quem me- ru- i- sti por-|ta- re, al- le- lu- ia, al- le-|lu- * * * *|ia,||
 F,2 F,F, E,2 D,>C, | F,>G, A,>B, G,>A, B,>C | A, B,2 A, B,4 |"^b" z2 B,,C, D,E,F,G, | %31
w: quem me- ru- i- sti por-|ta- re, al- le- lu- ia, al- le-|lu- * * ia,|re- sur- re- xit, re- sur-|
 A,B,CF, G,4 | F,4 z4 | z2 D,E, F,>G, A,B, | CB,CA, B,4 | A,2 G,E, F,D,E,C, | D,2 C,2 z2 F,D, | %37
w: re- xit sic- ut di-|xit,|re- sur- re- xit, re- sur-|re- xit sic- ut di-|xit, al- le- lu- ia, al- le|lu- ia, al- le-|
 _E,C,D,B,, C,2 B,,2 | F,D,_E,C, D,B,,C,A,, | B,G,A,F, G,C, F,2- | F,6 E,2 | F,4 z2 F,2- | %42
w: lu- ia, al- le- lu- ia,|al- le- lu- ia, al- le- lu- ia,|al- le- lu- ia, al- le- lu-||ia, o-|
 F,2 G,>A, B,2 B,2 | z2 A,2 G,2 G,>F, | _E,2 C,2 D,4 | G,,2 G,4 A,>=B, | C2 C2 z2 B,2 | %47
w: * ra pro no- bis,|pro no- bis, pro-|no- bis De-|um, o- ra pro|no- bis, pro|
 A,2 A,2 G,4 | F,3 F, E,2 E,2 | D,6 ^C,2 | D,4 z4 | z8 | z8 | z2 G,/F,/E,/D,/ C,>D, E,>F,- | %54
w: no- bis De-|um, pro no- bis|De- *|um,|||al- * * * * le- lu- ia,|
 G,2 D,/C,/B,,/A,,/ G,,>A,, B,,>C,- | D,2 A,,>B,, C,4 | F,4 z4 | %57
w: _ al- * * * * le- lu- ia,|_ al- le- lu-|ia,|
"^b""^b" z2 F,/E,/D,/C,/ B,,>C, D,>E,- | F,4 z4 |"^b""^b" z2 G,/F,/E,/D,/ C,>D, E,>F,- | %60
w: al- * * * * le- lu- ia,|_|al- * * * * le- lu- ia,|
 G,2 E,F, G,4 | C,2 C,/D,/E,/F,/ G,>C B,>A,- | B,2 G,,/A,,/B,,/C,/ D,>G, F,>E,- | D,2 A,,B,, C,4 | %64
w: _ al- le- lu-|ia, al- * * * * le- lu- ia,|_ al- * * * * le- lu- ia,|_ al- le- lu-|
 F,,4 z2 F,2 | A,2 A,2 z A, G,>F, | C2 C2 z2 C,2- | C,2 C,C, ^C,3 C, | D,4 A,,4 | z8 | %70
w: ia, Re-|gi- na, Re- gi- na|Cae- li, o-|* ra pro no- bis|De- um,||
 ^F,2 F,F, F,3 F, | G,4 D,4 | z8 | z D, G,2 F,4 | z2 A,4 A,A, | G,2 F,2 F,2 E,2 | F,4 z4 | z8 | %78
w: o- ra pro no- bis|De- um,||pro no- bis|pro no- bis,|pro no- bis De-|um,||
 z2 G,/F,/E,/D,/ C,>D, E,>F,- | G,2 E,F, G,4 | C,2 C,/D,/E,/F,/ G,C B,>A, | %81
w: al- * * * * le- lu- ia,|_ al- le- lu-|ia, al- * * * * le lu- ia,|
 B,2 G,,/A,,/B,,/C,/ D,>G, F,>E,- | D,2 A,,B,, C,4 | F,,2 F,3 E, D,C, | D,4 A,,4 | B,,8 | F,,8 |] %87
w: _ al- * * * * le- lu- ia,|_ al- le- lu-|ia, al- * * *|* le|lu-|ia.|
V:3
 F,8- | F,4 B,,4 | F,4 F,,4 | B,,4 F,,4 | F,8 | C,2 G,,2 D,2 A,,2 | B,,4 C,4 |"^6" F,4 F,4 | %8
"^5 6" G,4 F,4 | B,,4 F,4 | F,,4 C,4 | F,,4 B,,4 | F,4 E,4 | F,2 E,2 D,4 | C,3 C, F,4- | %15
"^6""^5 6" F,4 G,4 | F,6 D,2 |"^6" _E,2 C,2 F,2 D,2 |"^6" G,2 E,2 F,2 D,2 | G,2 _E,2 F,2 D,2 | %20
 _E,2 D,2 F,4 | B,,8 | B,,3 B,, A,,2 G,,F,, | C,4 D,4 | E,2 F,4 E,2 | F,2 F,,2 C,4 | %26
"^6" A,,2 F,,2 G,,4 |"^6" F,,2 F,2 E,4 | F,4 G,2 D,2 |"^6" F,4 B,,4 | B,,8 |"^7 6" A,,4 G,,4 | %32
 F,,8 | G,,4 F,,4 | C2 A,2 B,4 | A,2 G,2 F,2 E,2 | D,2 C,2 G,2 F,2 | _E,2 D,2 C,2 B,,2 | %38
 F,2 _E,2 D,2 C,2 | B,,2 A,,2 G,,2 F,,2 | C,8 | F,,4 z2 F,2- | F,2 G,A, B,2 B,2- | B,2 A,2 G,3 F, | %44
 _E,2 C,2 D,4 |"^-natural" G,,2 G,4 A,=B, |"^(b)" C2 C4 B,2 | A,4 G,4 |"^6#" F,4 E,4 | %49
"^-natural" D,2 G,,2 A,,4 | D,6 E,2 | F,6 G,2 | A,2 F,2 G,4 | C,8 | G,,8 | D,2 A,,2 C,4 | F,,8 | %57
 B,,8 | F,,8 | C,8 |"^-natural""^-natural" G,2 E,F, G,4 | C,8 | G,,8 | D,2 A,,2 C,4 | F,,8- | %65
 F,,4 F,4 | C4 C,4- | C,2 C,2 ^C,4 | D,4 A,,4 |"^6""^#" B,,2 G,,2 A,,4 |"^#" D,4 ^F,4 | %71
"^#" G,4 D,4 |"^6" _E,2 C,2 D,4 | G,,4 D,4 |"^-natural" A,,2 F,,4 F,,2 | G,,2 A,,2 B,,2 C,2 | %76
 F,,2 F,4 G,2 | A,2 F,2 G,4 | C,8 |"^-natural" G,2 E,F, G,4 | C,8 | G,,8 | D,2 A,,2 C,4 | %83
 F,,2 F,3 E, D,C, | D,4 A,,4 | B,,8 | F,,8 |] %87

